X: 1
T: The Golden Gaels Reel
T: 8x32R 3C (John S. Trew, Martello Tower Bk 3)
P: Old Willie Hunter
R: reel
C: Ronald Cooper
M: 4/4
L: 1/8
K: A
|: ed |\
"A"cA (3AAA EAcA | eaga ecAc |\
"Bm"dB (3BBB FBBc | dBba "E"gfed |\
"A"cA (3AAA EAcA | eaga ecAc |
"Bm"dBba "E"gfed | "A"cA"E"BG "A"A2 :|\
(3efg |\
"A"aA (3AAA ecAc | eaga ecA[ac] |\
"Bm"bB (3BBB fdBc | dBba "E"gbeg |
"A"aA (3AAA ecAc | eaga ecAc |\
"Bm"dBba "E"gfed | "A"cA"E"BG "A"A2 (3efg |\
| "A"aA (3AAA ecAc | eaga ecAc |
"Bm"bB (3BBB fdBc | dBba "E"gbeg |\
"A"acea "E"gBeg | "D"fAdf "A"eAce |\
"Bm"dBba "E"gfed | "A"cA"E"BG "A"A2 |]
